X: 20952
T: Joys Of Quebec
R: reel
M: 4/4
K: Amajor
ee|:"A"e2 cc c2 ee|e2 cc c2 ee|f2 e2 d2 c2|"E7"d2 BB B2 dd|d2 BB B2 dd|
"E7"d2 BB B2 ee|1 g2 f2 e2 d2|"A"c2 AA A2 ee:|2 g2 ee f2g2|"A"a6 B/c/d||
"A"e4 "D"f4|"A"e6 AB|c4 "D"d4|"A"c6 Ac|B2 A2 G2 A2|
"E7"B6 e2|1 g2 f2 e2 d2|"A"c6 B/c/d:|2 g2 ee f2g2|"A"a6 ee||

